assets/icons/qvision/looks_6.svg

<svg xmlns="http://www.w3.org/2000/svg" height="24" viewBox="0 0 24 24" width="24"><path d="M0 0h24v24H0z" fill="none"/><path d="M11 15h2v-2h-2v2zm8-12H5c-1.1 0-2 .9-2 2v14c0 1.1.9 2 2 2h14c1.1 0 2-.9 2-2V5c0-1.1-.9-2-2-2zm-4 6h-4v2h2c1.1 0 2 .89 2 2v2c0 1.11-.9 2-2 2h-2c-1.1 0-2-.89-2-2V9c0-1.11.9-2 2-2h4v2z"/></svg>

<svg width="24" height="24" viewBox="0 0 24 24" fill="none" xmlns="http://www.w3.org/2000/svg">
<g clip-path="url(#clip0_147_3563)">
<path d="M11 15H13V13H11V15ZM19 3H5C3.9 3 3 3.9 3 5V19C3 20.1 3.9 21 5 21H19C20.1 21 21 20.1 21 19V5C21 3.9 20.1 3 19 3ZM15 9H11V11H13C14.1 11 15 11.89 15 13V15C15 16.11 14.1 17 13 17H11C9.9 17 9 16.11 9 15V9C9 7.89 9.9 7 11 7H15V9Z" fill="#323232"/>
</g>
<defs>
<clipPath id="clip0_147_3563">
<rect width="24" height="24" fill="white"/>
</clipPath>
</defs>
</svg>
